img/logo.svg

<?xml version="1.0" encoding="UTF-8" standalone="no"?>
<!-- Generator: Adobe Illustrator 16.0.0, SVG Export Plug-In . SVG Version: 6.00 Build 0)  -->

<svg
   xmlns:dc="http://purl.org/dc/elements/1.1/"
   xmlns:cc="http://creativecommons.org/ns#"
   xmlns:rdf="http://www.w3.org/1999/02/22-rdf-syntax-ns#"
   xmlns:svg="http://www.w3.org/2000/svg"
   xmlns="http://www.w3.org/2000/svg"
   xmlns:sodipodi="http://sodipodi.sourceforge.net/DTD/sodipodi-0.dtd"
   xmlns:inkscape="http://www.inkscape.org/namespaces/inkscape"
   version="1.1"
   id="Layer_1"
   x="0px"
   y="0px"
   width="256"
   height="256"
   viewBox="0 0 256 256"
   enable-background="new 0 0 311 202"
   xml:space="preserve"
   inkscape:version="0.92pre1 unknown"
   sodipodi:docname="logo_transparent.svg"><metadata
     id="metadata13"><rdf:RDF><cc:Work
         rdf:about=""><dc:format>image/svg+xml</dc:format><dc:type
           rdf:resource="http://purl.org/dc/dcmitype/StillImage" /><dc:title /></cc:Work></rdf:RDF></metadata><defs
     id="defs11" /><sodipodi:namedview
     pagecolor="#ffffff"
     bordercolor="#666666"
     borderopacity="1"
     objecttolerance="10"
     gridtolerance="10"
     guidetolerance="10"
     inkscape:pageopacity="0"
     inkscape:pageshadow="2"
     inkscape:window-width="1855"
     inkscape:window-height="1056"
     id="namedview9"
     showgrid="false"
     inkscape:zoom="1.4230759"
     inkscape:cx="70.350285"
     inkscape:cy="-13.928342"
     inkscape:window-x="65"
     inkscape:window-y="24"
     inkscape:window-maximized="1"
     inkscape:current-layer="Layer_1"
     fit-margin-top="0"
     fit-margin-left="0"
     fit-margin-right="0"
     fit-margin-bottom="0" /><path
     style="color:#000000;text-decoration:none;text-decoration-line:none;text-decoration-style:solid;text-decoration-color:#000000;clip-rule:nonzero;display:inline;overflow:visible;visibility:visible;opacity:0.25;isolation:auto;mix-blend-mode:normal;color-interpolation:sRGB;color-interpolation-filters:linearRGB;solid-color:#000000;solid-opacity:1;fill:#ffffff;fill-opacity:1;fill-rule:nonzero;stroke:none;stroke-width:0.80000001;stroke-linecap:butt;stroke-linejoin:miter;stroke-miterlimit:4;stroke-dasharray:none;stroke-dashoffset:0;stroke-opacity:1;marker:none;color-rendering:auto;image-rendering:auto;shape-rendering:auto;text-rendering:auto;enable-background:accumulate"
     d="m 241.77387,85.574562 -20.08254,18.646348 c 4.6125,7.0735 7.0703,15.33486 7.07451,23.77936 -0.0187,9.37609 -3.06119,18.49609 -8.67557,26.00543 l 18.64635,20.19955 C 249.84279,161.37039 255.96921,144.97318 256,128.00027 255.96854,112.6924 250.97718,97.806929 241.77387,85.574562 Z"
     id="path4332"
     inkscape:connector-curvature="0"
     sodipodi:nodetypes="ccccccc" /><path
     inkscape:connector-curvature="0"
     style="color:#000000;text-decoration:none;text-decoration-line:none;text-decoration-style:solid;text-decoration-color:#000000;clip-rule:nonzero;display:inline;overflow:visible;visibility:visible;opacity:0.7;isolation:auto;mix-blend-mode:normal;color-interpolation:sRGB;color-interpolation-filters:linearRGB;solid-color:#000000;solid-opacity:1;fill:#ffffff;fill-opacity:1;fill-rule:nonzero;stroke:none;stroke-width:0.80000001;stroke-linecap:butt;stroke-linejoin:miter;stroke-miterlimit:4;stroke-dasharray:none;stroke-dashoffset:0;stroke-opacity:1;marker:none;color-rendering:auto;image-rendering:auto;shape-rendering:auto;text-rendering:auto;enable-background:accumulate"
     d="m 185.1922,57.191518 a 70.808782,70.808782 0 0 0 -70.80879,70.808782 70.808782,70.808782 0 0 0 70.80879,70.80878 70.808782,70.808782 0 0 0 53.54488,-24.60435 L 220.09021,154.00466 A 43.574635,43.574635 0 0 1 185.1922,171.57494 43.574635,43.574635 0 0 1 141.61756,128.0003 43.574635,43.574635 0 0 1 185.1922,84.425665 43.574635,43.574635 0 0 1 221.69234,104.22149 L 241.7754,85.572473 A 70.808782,70.808782 0 0 0 185.1922,57.191518 Z"
     id="path4295"
     class="logo-c"
     onmouseover="" /><path
     id="path4291"
     d="M 70.808781,57.191518 A 70.808782,70.808782 0 0 0 4.963683e-7,128.0003 70.808782,70.808782 0 0 0 70.808781,198.80908 a 70.808782,70.808782 0 0 0 57.202359,-29.2235 70.808782,70.808782 0 0 0 18.14261,17.43409 l 11.89366,-24.94052 a 43.574635,43.574635 0 0 1 -16.42984,-34.07885 70.808782,70.808782 0 0 0 0,-0.003 70.808782,70.808782 0 0 0 -70.808789,-70.806651 z m 0,27.234147 a 43.574635,43.574635 0 0 1 43.574629,43.572505 43.574635,43.574635 0 0 1 0,0.003 A 43.574635,43.574635 0 0 1 70.808781,171.57553 43.574635,43.574635 0 0 1 27.234148,128.0009 43.574635,43.574635 0 0 1 70.808781,84.426265 Z"
     style="color:#000000;text-decoration:none;text-decoration-line:none;text-decoration-style:solid;text-decoration-color:#000000;clip-rule:nonzero;display:inline;overflow:visible;visibility:visible;opacity:1;isolation:auto;mix-blend-mode:normal;color-interpolation:sRGB;color-interpolation-filters:linearRGB;solid-color:#000000;solid-opacity:1;fill:#ffffff;fill-opacity:1;fill-rule:nonzero;stroke:none;stroke-width:0.80000001;stroke-linecap:butt;stroke-linejoin:miter;stroke-miterlimit:4;stroke-dasharray:none;stroke-dashoffset:0;stroke-opacity:1;marker:none;color-rendering:auto;image-rendering:auto;shape-rendering:auto;text-rendering:auto;enable-background:accumulate"
     inkscape:connector-curvature="0"
     inkscape:label="logo-a" /></svg>

<svg class="logo-svg" xmlns:rdf="http://www.w3.org/1999/02/22-rdf-syntax-ns#" xmlns="http://www.w3.org/2000/svg" version="1.1" xml:space="preserve" height="256" width="256" enable-background="new 0 0 311 202" y="0px" x="0px" xmlns:cc="http://creativecommons.org/ns#" xmlns:dc="http://purl.org/dc/elements/1.1/" viewBox="0 0 256 256"><metadata><rdf:RDF><cc:Work rdf:about=""><dc:format>image/svg+xml</dc:format><dc:type rdf:resource="http://purl.org/dc/dcmitype/StillImage"/><dc:title/></cc:Work></rdf:RDF></metadata><g fill="#fff"><path opacity=".25" style="color-rendering:auto;text-decoration-color:#000000;color:#000000;isolation:auto;mix-blend-mode:normal;shape-rendering:auto;solid-color:#000000;text-decoration-line:none;image-rendering:auto;enable-background:accumulate;text-decoration-style:solid" d="m241.77 85.575-20.083 18.646c4.6125 7.0735 7.0703 15.335 7.0745 23.779-0.0187 9.3761-3.0612 18.496-8.6756 26.005l18.646 20.2c11.1-12.83 17.23-29.23 17.26-46.2-0.03-15.31-5.02-30.193-14.23-42.425z"/><path style="color-rendering:auto;text-decoration-color:#000000;color:#000000;isolation:auto;mix-blend-mode:normal;shape-rendering:auto;solid-color:#000000;text-decoration-line:none;image-rendering:auto;enable-background:accumulate;text-decoration-style:solid" d="m70.809 57.192a70.809 70.809 0 0 0 -70.809 70.808 70.809 70.809 0 0 0 70.809 70.81 70.809 70.809 0 0 0 57.202 -29.224 70.809 70.809 0 0 0 18.143 17.434l11.894-24.941a43.575 43.575 0 0 1 -16.43 -34.079 70.809 70.809 0 0 0 0 -0.003 70.809 70.809 0 0 0 -70.809 -70.807zm0 27.234a43.575 43.575 0 0 1 43.575 43.573 43.575 43.575 0 0 1 0 0.003 43.575 43.575 0 0 1 -43.571 43.58 43.575 43.575 0 0 1 -43.575 -43.58 43.575 43.575 0 0 1 43.575 -43.574z"/><path opacity=".7" style="color-rendering:auto;text-decoration-color:#000000;color:#000000;isolation:auto;mix-blend-mode:normal;shape-rendering:auto;solid-color:#000000;text-decoration-line:none;image-rendering:auto;enable-background:accumulate;text-decoration-style:solid" d="m185.19 57.192a70.809 70.809 0 0 0 -70.809 70.809 70.809 70.809 0 0 0 70.809 70.809 70.809 70.809 0 0 0 53.545 -24.604l-18.65-20.21a43.575 43.575 0 0 1 -34.9 17.57 43.575 43.575 0 0 1 -43.57 -43.57 43.575 43.575 0 0 1 43.57 -43.574 43.575 43.575 0 0 1 36.5 19.794l20.09-18.648a70.809 70.809 0 0 0 -56.59 -28.38z" class="logo-svg-c" onmouseover=""/></g></svg>
